.tmp/img/icon-code-browser.svg

<svg xmlns="http://www.w3.org/2000/svg" width="36" height="33" viewBox="0 0 36 33"><g fill="#CE0176"><path d="M33.8.1H2.2C1 .1 0 1.1 0 2.3v28.5c0 1.2 1 2.1 2.2 2.1h31.6c1.2 0 2.1-.9 2.1-2.1V2.3c0-1.2-.9-2.2-2.1-2.2zm-6.5 3.6c0-.4.3-.8.8-.8h.8c.4 0 .7.4.7.8v.9c0 .5-.3.8-.7.8h-.8c-.5 0-.8-.3-.8-.8v-.9zm-3.7 0c0-.4.3-.8.7-.8h.8c.5 0 .8.4.8.8v.9c0 .5-.3.8-.8.8h-.8c-.4 0-.7-.3-.7-.8v-.9zm9.7 26.6H2.6V7.9h30.7v22.4zm.1-25.7c0 .5-.4.8-.8.8h-.8c-.5 0-.8-.3-.8-.8v-.9c0-.4.3-.8.8-.8h.8c.4 0 .8.4.8.8v.9z"/><path d="M7.7 19.9l5.8 2.7c.1.1.3.1.5.1s.4 0 .6-.1c.3-.2.5-.6.5-1 0-.5-.3-.9-.7-1l-3.6-1.7 3.6-1.7c.4-.2.7-.6.7-1v-.1c0-.4-.2-.7-.5-.9-.2-.1-.4-.2-.6-.2-.2 0-.4 0-.5.1l-5.8 2.7c-.4.2-.6.6-.6 1v.1c0 .4.2.9.6 1zM15.1 25.4c.2.3.6.5.9.5h.1c.5 0 .9-.3 1-.8l3.8-11.8c.2-.4.1-.8-.1-1.1-.2-.2-.6-.4-.9-.4-.5 0-1 .3-1.1.8L15 24.4c-.1.4-.1.8.1 1zM20.8 16.2c0 .4.3.8.7 1l3.6 1.7-3.6 1.7c-.4.1-.7.5-.7 1 0 .4.2.8.6 1 .1.1.3.1.6.1.1 0 .3 0 .4-.1l5.8-2.7c.4-.1.7-.6.7-1v-.1c0-.4-.3-.8-.7-1l-5.8-2.7c-.1-.1-.3-.1-.4-.1-.3 0-.5.1-.6.2-.4.2-.6.5-.6.9v.1z"/></g></svg>

<svg xmlns="http://www.w3.org/2000/svg" width="36" height="33" viewBox="0 0 36 33"><title>  programming-code</title><desc>  Created with Sketch.</desc><g fill="none"><g fill="#CE0176"><path d="M33.8 0.1L2.2 0.1C1 0.1 0 1.1 0 2.3L0 30.8C0 32 1 32.9 2.2 32.9L33.8 32.9C35 32.9 35.9 32 35.9 30.8L35.9 2.3C35.9 1.1 35 0.1 33.8 0.1ZM27.3 3.7C27.3 3.3 27.6 2.9 28.1 2.9L28.9 2.9C29.3 2.9 29.6 3.3 29.6 3.7L29.6 4.6C29.6 5.1 29.3 5.4 28.9 5.4L28.1 5.4C27.6 5.4 27.3 5.1 27.3 4.6L27.3 3.7ZM23.6 3.7C23.6 3.3 23.9 2.9 24.3 2.9L25.1 2.9C25.6 2.9 25.9 3.3 25.9 3.7L25.9 4.6C25.9 5.1 25.6 5.4 25.1 5.4L24.3 5.4C23.9 5.4 23.6 5.1 23.6 4.6L23.6 3.7ZM33.3 30.3L2.6 30.3 2.6 7.9 33.3 7.9 33.3 30.3 33.3 30.3ZM33.4 4.6C33.4 5.1 33 5.4 32.6 5.4L31.8 5.4C31.3 5.4 31 5.1 31 4.6L31 3.7C31 3.3 31.3 2.9 31.8 2.9L32.6 2.9C33 2.9 33.4 3.3 33.4 3.7L33.4 4.6Z"/><path d="M7.7 19.9L13.5 22.6C13.6 22.7 13.8 22.7 14 22.7 14.2 22.7 14.4 22.7 14.6 22.6 14.9 22.4 15.1 22 15.1 21.6L15.1 21.6C15.1 21.1 14.8 20.7 14.4 20.6L10.8 18.9 14.4 17.2C14.8 17 15.1 16.6 15.1 16.2L15.1 16.1C15.1 15.7 14.9 15.4 14.6 15.2 14.4 15.1 14.2 15 14 15 13.8 15 13.6 15 13.5 15.1L7.7 17.8C7.3 18 7.1 18.4 7.1 18.8L7.1 18.9C7.1 19.3 7.3 19.8 7.7 19.9Z"/><path d="M15.1 25.4C15.3 25.7 15.7 25.9 16 25.9L16.1 25.9C16.6 25.9 17 25.6 17.1 25.1L20.9 13.3C21.1 12.9 21 12.5 20.8 12.2 20.6 12 20.2 11.8 19.9 11.8L19.9 11.8C19.4 11.8 18.9 12.1 18.8 12.6L15 24.4C14.9 24.8 14.9 25.2 15.1 25.4Z"/><path d="M20.8 16.2C20.8 16.6 21.1 17 21.5 17.2L25.1 18.9 21.5 20.6C21.1 20.7 20.8 21.1 20.8 21.6L20.8 21.6C20.8 22 21 22.4 21.4 22.6 21.5 22.7 21.7 22.7 22 22.7 22.1 22.7 22.3 22.7 22.4 22.6L28.2 19.9C28.6 19.8 28.9 19.3 28.9 18.9L28.9 18.8C28.9 18.4 28.6 18 28.2 17.8L22.4 15.1C22.3 15 22.1 15 22 15 21.7 15 21.5 15.1 21.4 15.2 21 15.4 20.8 15.7 20.8 16.1L20.8 16.2 20.8 16.2 20.8 16.2Z"/></g></g></svg>
